public/images/flags/SVN.svg

<svg xmlns="http://www.w3.org/2000/svg" xml:space="preserve" fill-rule="evenodd" stroke-linejoin="round" stroke-miterlimit="2" clip-rule="evenodd" viewBox="0 0 640 480">
  <path fill="red" fill-rule="nonzero" d="M0 0h639.996v480H0z"/>
  <path fill="#00f" fill-rule="nonzero" d="M0 0h639.996v320H0z"/>
  <path fill="#fff" fill-rule="nonzero" d="M0 0h639.996v160H0z"/>
  <g fill-rule="nonzero" transform="translate(158.628 240) scale(.31313)">
    <path fill="#00f" d="M-185.877-471.841c118.368-52.157 253.386-52.157 371.754 0C205.292-197.28 143.333-41.667 0-5c-143.333-36.667-205.292-192.28-185.877-466.841Z"/>
    <path id="a" fill="#ff0" d="m0-422.5 5.625 12.757 13.861-1.507L11.25-400l8.236 11.25-13.861-1.507L0-377.5l-5.625-12.757-13.861 1.507L-11.25-400l-8.236-11.25 13.861 1.507"/>
    <path id="a1" fill="#ff0" d="m0-422.5 5.625 12.757 13.861-1.507L11.25-400l8.236 11.25-13.861-1.507L0-377.5l-5.625-12.757-13.861 1.507L-11.25-400l-8.236-11.25 13.861 1.507" transform="translate(-52.5 -70)"/>
    <path id="a2" fill="#ff0" d="m0-422.5 5.625 12.757 13.861-1.507L11.25-400l8.236 11.25-13.861-1.507L0-377.5l-5.625-12.757-13.861 1.507L-11.25-400l-8.236-11.25 13.861 1.507" transform="translate(52.5 -70)"/>
    <path fill="#fff" d="m0-350 45 90 30-40 75 100a50.01 50.01 0 0 1-1.924 13.736C127.224-113.28 71.829-54.992 0-30.454c-71.829-24.538-127.224-82.826-148.076-155.81A50.01 50.01 0 0 1-150-200l75-100 30 40 45-90Z"/>
    <path id="b" fill="#00f" d="M-148.076-186.264C-141.961-164.862-122.258-150-100-150c8.776 0 17.4-2.311 25-6.699 15.451-8.92 34.549-8.92 50 0 15.451 8.921 34.549 8.921 50 0 15.451-8.92 34.549-8.92 50 0A50.004 50.004 0 0 0 100-150c22.258 0 41.961-14.862 48.076-36.264l1.924.698v36.602c-8.776 0-17.4 2.311-25 6.699-15.451 8.921-34.549 8.921-50 0s-34.549-8.921-50 0-34.549 8.921-50 0-34.549-8.921-50 0-34.549 8.921-50 0a50.004 50.004 0 0 0-25-6.699v-36.602"/>
    <path id="b1" fill="#00f" d="M-148.076-186.264C-141.961-164.862-122.258-150-100-150c8.776 0 17.4-2.311 25-6.699 15.451-8.92 34.549-8.92 50 0 15.451 8.921 34.549 8.921 50 0 15.451-8.92 34.549-8.92 50 0A50.004 50.004 0 0 0 100-150c22.258 0 41.961-14.862 48.076-36.264l1.924.698v36.602c-8.776 0-17.4 2.311-25 6.699-15.451 8.921-34.549 8.921-50 0s-34.549-8.921-50 0-34.549 8.921-50 0-34.549-8.921-50 0-34.549 8.921-50 0a50.004 50.004 0 0 0-25-6.699v-36.602" transform="translate(0 28.867)"/>
    <path fill="red" d="M-200-465.331a460.792 460.792 0 0 1 14.123-6.51l14.853 237.244C-164.689-133.425-96.565-46.024 0-15.181c96.565-30.843 164.689-118.244 171.024-219.416l14.853-237.244a460.792 460.792 0 0 1 14.123 6.51l-14.502 231.64C178.686-124.899 104.408-31.322 0 0c-104.408-31.322-178.686-124.899-185.498-233.691L-200-465.331Z"/>
  </g>
</svg>

<?xml version="1.0" encoding="UTF-8" standalone="no"?>
<!DOCTYPE svg PUBLIC "-//W3C//DTD SVG 1.1//EN" "http://www.w3.org/Graphics/SVG/1.1/DTD/svg11.dtd">
<svg width="100%" height="100%" viewBox="0 0 640 480" version="1.1" xmlns="http://www.w3.org/2000/svg" xmlns:xlink="http://www.w3.org/1999/xlink" xml:space="preserve" xmlns:serif="http://www.serif.com/" style="fill-rule:evenodd;clip-rule:evenodd;stroke-linejoin:round;stroke-miterlimit:2;">
    <g>
        <g transform="matrix(0.533333,0,0,0.8,-1.56319e-13,3.97904e-14)">
            <rect x="0" y="0" width="1200" height="600" style="fill:rgb(255,0,0);fill-rule:nonzero;"/>
        </g>
        <g transform="matrix(0.533333,0,0,0.8,-1.56319e-13,3.97904e-14)">
            <rect x="0" y="0" width="1200" height="400" style="fill:rgb(0,0,255);fill-rule:nonzero;"/>
        </g>
        <g transform="matrix(0.533333,0,0,0.8,-1.56319e-13,3.97904e-14)">
            <rect x="0" y="0" width="1200" height="200" style="fill:white;fill-rule:nonzero;"/>
        </g>
        <g transform="matrix(0.313126,0,0,0.313126,158.628,240)">
            <path d="M-185.877,-471.841C-67.509,-523.998 67.509,-523.998 185.877,-471.841C205.292,-197.28 143.333,-41.667 0,-5C-143.333,-41.667 -205.292,-197.28 -185.877,-471.841Z" style="fill:rgb(0,0,255);fill-rule:nonzero;"/>
            <path id="a" d="M0,-422.5L5.625,-409.743L19.486,-411.25L11.25,-400L19.486,-388.75L5.625,-390.257L0,-377.5L-5.625,-390.257L-19.486,-388.75L-11.25,-400L-19.486,-411.25L-5.625,-409.743" style="fill:rgb(255,255,0);fill-rule:nonzero;"/>
            <g id="a1" serif:id="a" transform="matrix(1,0,0,1,-52.5,-70)">
                <path d="M0,-422.5L5.625,-409.743L19.486,-411.25L11.25,-400L19.486,-388.75L5.625,-390.257L0,-377.5L-5.625,-390.257L-19.486,-388.75L-11.25,-400L-19.486,-411.25L-5.625,-409.743" style="fill:rgb(255,255,0);fill-rule:nonzero;"/>
            </g>
            <g id="a2" serif:id="a" transform="matrix(1,0,0,1,52.5,-70)">
                <path d="M0,-422.5L5.625,-409.743L19.486,-411.25L11.25,-400L19.486,-388.75L5.625,-390.257L0,-377.5L-5.625,-390.257L-19.486,-388.75L-11.25,-400L-19.486,-411.25L-5.625,-409.743" style="fill:rgb(255,255,0);fill-rule:nonzero;"/>
            </g>
            <path d="M0,-350L45,-260L75,-300L150,-200C150,-195.354 149.352,-190.731 148.076,-186.264C127.224,-113.28 71.829,-54.992 -0,-30.454C-71.829,-54.992 -127.224,-113.28 -148.076,-186.264C-149.352,-190.731 -150,-195.354 -150,-200L-75,-300L-45,-260L0,-350Z" style="fill:white;fill-rule:nonzero;"/>
            <path id="b" d="M-148.076,-186.264C-141.961,-164.862 -122.258,-150 -100,-150C-91.224,-150 -82.6,-152.311 -75,-156.699C-59.549,-165.619 -40.451,-165.619 -25,-156.699C-9.549,-147.778 9.549,-147.778 25,-156.699C40.451,-165.619 59.549,-165.619 75,-156.699C82.6,-152.311 91.224,-150 100,-150C122.258,-150 141.961,-164.862 148.076,-186.264L150,-185.566L150,-148.964C141.224,-148.964 132.6,-146.653 125,-142.265C109.549,-133.344 90.451,-133.344 75,-142.265C59.549,-151.186 40.451,-151.186 25,-142.265C9.549,-133.344 -9.549,-133.344 -25,-142.265C-40.451,-151.186 -59.549,-151.186 -75,-142.265C-90.451,-133.344 -109.549,-133.344 -125,-142.265C-132.6,-146.653 -141.224,-148.964 -150,-148.964L-150,-185.566" style="fill:rgb(0,0,255);fill-rule:nonzero;"/>
            <g id="b1" serif:id="b" transform="matrix(1,0,0,1,0,28.8675)">
                <path d="M-148.076,-186.264C-141.961,-164.862 -122.258,-150 -100,-150C-91.224,-150 -82.6,-152.311 -75,-156.699C-59.549,-165.619 -40.451,-165.619 -25,-156.699C-9.549,-147.778 9.549,-147.778 25,-156.699C40.451,-165.619 59.549,-165.619 75,-156.699C82.6,-152.311 91.224,-150 100,-150C122.258,-150 141.961,-164.862 148.076,-186.264L150,-185.566L150,-148.964C141.224,-148.964 132.6,-146.653 125,-142.265C109.549,-133.344 90.451,-133.344 75,-142.265C59.549,-151.186 40.451,-151.186 25,-142.265C9.549,-133.344 -9.549,-133.344 -25,-142.265C-40.451,-151.186 -59.549,-151.186 -75,-142.265C-90.451,-133.344 -109.549,-133.344 -125,-142.265C-132.6,-146.653 -141.224,-148.964 -150,-148.964L-150,-185.566" style="fill:rgb(0,0,255);fill-rule:nonzero;"/>
            </g>
            <path d="M-200,-465.331C-195.329,-467.58 -190.621,-469.751 -185.877,-471.841L-171.024,-234.597C-164.689,-133.425 -96.565,-46.024 0,-15.181C96.565,-46.024 164.689,-133.425 171.024,-234.597L185.877,-471.841C190.621,-469.751 195.329,-467.58 200,-465.331L185.498,-233.691C178.686,-124.899 104.408,-31.322 0,0C-104.408,-31.322 -178.686,-124.899 -185.498,-233.691L-200,-465.331Z" style="fill:rgb(255,0,0);fill-rule:nonzero;"/>
        </g>
    </g>
</svg>
